projects/plugins/jetpack/images/get-apps-icon.svg

<svg width="58" height="34" viewBox="0 0 58 34" fill="none" xmlns="http://www.w3.org/2000/svg">
<path d="M30 17C30 8.735 23.265 2 15 2C6.72 2 0 8.735 0 17C0 25.28 6.72 32 15 32C23.265 32 30 25.28 30 17ZM11.67 25.055L6.555 11.33C7.38 11.3 8.31 11.21 8.31 11.21C9.06 11.12 8.97 9.515 8.22 9.545C8.22 9.545 6.045 9.71 4.665 9.71C4.395 9.71 4.11 9.71 3.795 9.695C6.18 6.035 10.305 3.665 15 3.665C18.495 3.665 21.675 4.97 24.075 7.175C23.055 7.01 21.6 7.76 21.6 9.545C21.6 10.655 22.275 11.585 22.95 12.695C23.475 13.61 23.775 14.735 23.775 16.385C23.775 18.62 21.675 23.885 21.675 23.885L17.13 11.33C17.94 11.3 18.36 11.075 18.36 11.075C19.11 11 19.02 9.2 18.27 9.245C18.27 9.245 16.11 9.425 14.7 9.425C13.395 9.425 11.205 9.245 11.205 9.245C10.455 9.2 10.365 11.045 11.115 11.075L12.495 11.195L14.385 16.31L11.67 25.055ZM26.115 17C26.475 16.04 27.225 14.195 26.76 10.625C27.81 12.56 28.335 14.69 28.335 17C28.335 21.935 25.74 26.36 21.735 28.67C23.19 24.785 24.645 20.87 26.115 17ZM9.15 29.135C4.68 26.975 1.665 22.295 1.665 17C1.665 15.05 2.01 13.28 2.745 11.615C4.875 17.45 7.005 23.3 9.15 29.135ZM15.195 19.19L19.065 29.66C17.775 30.095 16.425 30.335 15 30.335C13.815 30.335 12.645 30.17 11.565 29.84C12.78 26.27 13.995 22.73 15.195 19.19Z" fill="#0675C4"/>
<rect x="26" y="2" width="30" height="30" rx="15" fill="white"/>
<path fill-rule="evenodd" clip-rule="evenodd" d="M57.637 17.0001C57.637 26.1881 50.1886 33.6365 41.0006 33.6365C31.8126 33.6365 24.3643 26.1881 24.3643 17.0001C24.3643 7.81212 31.8126 0.36377 41.0006 0.36377C50.1886 0.36377 57.637 7.81212 57.637 17.0001ZM41.0006 32.0001C49.2849 32.0001 56.0006 25.2844 56.0006 17.0001C56.0006 8.71586 49.2849 2.00013 41.0006 2.00013C32.7163 2.00013 26.0006 8.71586 26.0006 17.0001C26.0006 25.2844 32.7163 32.0001 41.0006 32.0001Z" fill="white"/>
<path d="M41 2C32.7362 2 26 8.71779 26 17C26 25.2822 32.7178 32 41 32C49.2822 32 56 25.2822 56 17C56 8.71779 49.2822 2 41 2ZM40.227 19.4847H32.7546L40.227 4.94479V19.4847ZM41.7546 29.0184V14.4785H49.2086L41.7546 29.0184Z" fill="#069E08"/>
</svg>

<svg width="58" height="34" fill="none" xmlns="http://www.w3.org/2000/svg"><path d="M30 17c0-8.265-6.735-15-15-15C6.72 2 0 8.735 0 17c0 8.28 6.72 15 15 15 8.265 0 15-6.72 15-15Zm-18.33 8.055L6.555 11.33c.825-.03 1.755-.12 1.755-.12.75-.09.66-1.695-.09-1.665 0 0-2.175.165-3.555.165-.27 0-.555 0-.87-.015 2.385-3.66 6.51-6.03 11.205-6.03 3.495 0 6.675 1.305 9.075 3.51-1.02-.165-2.475.585-2.475 2.37 0 1.11.675 2.04 1.35 3.15.525.915.825 2.04.825 3.69 0 2.235-2.1 7.5-2.1 7.5L17.13 11.33c.81-.03 1.23-.255 1.23-.255.75-.075.66-1.875-.09-1.83 0 0-2.16.18-3.57.18-1.305 0-3.495-.18-3.495-.18-.75-.045-.84 1.8-.09 1.83l1.38.12 1.89 5.115-2.715 8.745ZM26.115 17c.36-.96 1.11-2.805.645-6.375 1.05 1.935 1.575 4.065 1.575 6.375 0 4.935-2.595 9.36-6.6 11.67 1.455-3.885 2.91-7.8 4.38-11.67ZM9.15 29.135C4.68 26.975 1.665 22.295 1.665 17c0-1.95.345-3.72 1.08-5.385 2.13 5.835 4.26 11.685 6.405 17.52Zm6.045-9.945 3.87 10.47c-1.29.435-2.64.675-4.065.675-1.185 0-2.355-.165-3.435-.495 1.215-3.57 2.43-7.11 3.63-10.65Z" fill="#0675C4"/><rect x="26" y="2" width="30" height="30" rx="15" fill="#fff"/><path fill-rule="evenodd" clip-rule="evenodd" d="M57.637 17c0 9.188-7.448 16.636-16.636 16.636-9.188 0-16.637-7.448-16.637-16.636 0-9.188 7.449-16.636 16.637-16.636S57.637 7.812 57.637 17ZM41.001 32c8.284 0 15-6.716 15-15 0-8.284-6.716-15-15-15-8.285 0-15 6.716-15 15 0 8.284 6.715 15 15 15Z" fill="#fff"/><path d="M41 2c-8.264 0-15 6.718-15 15s6.718 15 15 15 15-6.718 15-15S49.282 2 41 2Zm-.773 17.485h-7.472l7.472-14.54v14.54Zm1.528 9.533v-14.54h7.454l-7.454 14.54Z" fill="#069E08"/></svg>
